src/topics/icons/mockflow.svg

<svg height="256" preserveAspectRatio="xMidYMid" viewBox="0 0 256 256" width="256" xmlns="http://www.w3.org/2000/svg" xmlns:xlink="http://www.w3.org/1999/xlink"><radialGradient id="a" cx="44.187812%" cy="30.179299%" r="30.359256%"><stop offset="0" stop-color="#ffe870"/><stop offset="1" stop-color="#fc3"/></radialGradient><circle cx="128" cy="128" fill="url(#a)" r="128"/><path d="m80.4 175.5c.7-9.4 3.9-16.7 8.4-23.4 6.1-9 14.6-14.5 25.1-17.1 7.6-1.9 14.4-3.2 22.6-4.9 4.1-1 8.4-2.2 12.4-3.7 11.6-4.8 15.6-13.4 17.9-20.2s2.2-15.7 2.2-15.7l20.2 23.4c-1.3 7.2-3.2 15.3-6.8 21.8-3.4 6.1-8.2 10.2-14.2 13.6-8.5 4.9-17.3 7.4-26.8 8.9-5.5.9-11.4 2-16.9 3.2-12.3 2.8-20.1 10.8-22.6 23.1-.8 3.8-1.9 14.2-1.9 14.2z"/></svg>

<?xml version="1.0" encoding="UTF-8" standalone="no"?>
<svg width="256px" height="256px" viewBox="0 0 256 256" version="1.1" xmlns="http://www.w3.org/2000/svg" xmlns:xlink="http://www.w3.org/1999/xlink" preserveAspectRatio="xMidYMid">
    <defs>
        <radialGradient cx="44.1878115%" cy="30.1792989%" fx="44.1878115%" fy="30.1792989%" r="30.3592555%" id="radialGradient-1">
            <stop stop-color="#FFE870" offset="0%"></stop>
            <stop stop-color="#FFCC33" offset="100%"></stop>
        </radialGradient>
    </defs>
	<g>
		<circle fill="url(#radialGradient-1)" cx="128" cy="128" r="128"></circle>
		<path d="M80.4,175.5 C81.1,166.1 84.3,158.8 88.8,152.1 C94.9,143.1 103.4,137.6 113.9,135 C121.5,133.1 128.3,131.8 136.5,130.1 C140.6,129.1 144.9,127.9 148.9,126.4 C160.5,121.6 164.5,113 166.8,106.2 C169.1,99.4 169,90.5 169,90.5 L189.2,113.9 C187.9,121.1 186,129.2 182.4,135.7 C179,141.8 174.2,145.9 168.2,149.3 C159.7,154.2 150.9,156.7 141.4,158.2 C135.9,159.1 130,160.2 124.5,161.4 C112.2,164.2 104.4,172.2 101.9,184.5 C101.1,188.3 100,198.7 100,198.7 L80.4,175.5 L80.4,175.5 Z" fill="#000000"></path>
	</g>
</svg>
